X:24
T:Sárga csikóm
O:Bodmér (Fejér), Özv. Paksz Lajosné - Lengyel ILona (61) 1952.07
M:4/4
L:1/4
Q: "Poco rubato" 1/4=60
K:C
F/E/F/G/ A<G | D2 D z | 
d/B/c/d/ e<d | A2 A z | 
d<B d d | A>B A G | 
F/E/F/G/ A<G | D2 D z | 

